Origami/22x22/apps/mintupload.svg

<svg width="22" height="22" version="1" xmlns="http://www.w3.org/2000/svg">
 <path d="m2 1.5c-0.554 0-1 0.446-1 1v8.5h20v-8.5c0-0.554-0.446-1-1-1z" style="opacity:.05"/>
 <rect transform="matrix(0,-1,-1,0,0,0)" x="-21" y="-21" width="20" height="20" rx="1" ry="1" style="fill:#687df9"/>
 <path d="m9.8571 18.5c-0.3165 0-0.8672-0.2403-0.8571-0.5385v-8.4615h-2l4-5 4 5h-2v8.4615c0 0.2983-0.541 0.5385-0.857 0.5385z" style="opacity:.2"/>
 <path d="m9.8571 18c-0.3165 0-0.8672-0.2403-0.8571-0.5385v-8.4615h-2l4-5 4 5h-2v8.4615c0 0.2983-0.541 0.5385-0.857 0.5385z" style="fill:#ffffff"/>
 <path d="m1 2.5v-0.5c0-0.554 0.446-1 1-1h18c0.554 0 1 0.446 1 1v0.5c0-0.554-0.446-1-1-1h-18c-0.554 0-1 0.446-1 1z" style="fill:#ffffff;opacity:.2"/>
 <path d="m1 20v0.5c0 0.554 0.446 1 1 1h18c0.554 0 1-0.446 1-1v-0.5c0 0.554-0.446 1-1 1h-18c-0.554 0-1-0.446-1-1z" style="opacity:.2"/>
</svg>

<svg xmlns="http://www.w3.org/2000/svg" width="22" height="22" version="1">
 <path style="opacity:0.05" d="m 2,1.5 c -0.554,0 -1,0.446 -1,1 V 11 H 21 V 2.5 c 0,-0.554 -0.446,-1 -1,-1 z"/>
 <rect style="fill:#687df9" width="20" height="20" x="-21" y="-21" rx="1" ry="1" transform="matrix(0,-1,-1,0,0,0)"/>
 <path style="opacity:0.2" d="M 9.8571,18.5 C 9.5406,18.5 8.9899,18.2597 9,17.9615 V 9.5 H 7 l 4,-5 4,5 h -2 v 8.4615 C 13,18.2598 12.459,18.5 12.143,18.5 Z"/>
 <path style="fill:#ffffff" d="M 9.8571,18 C 9.5406,18 8.9899,17.7597 9,17.4615 V 9 H 7 l 4,-5 4,5 h -2 v 8.4615 C 13,17.7598 12.459,18 12.143,18 Z"/>
 <path style="opacity:0.2;fill:#ffffff" d="M 1,2.5 V 2 C 1,1.446 1.446,1 2,1 h 18 c 0.554,0 1,0.446 1,1 v 0.5 c 0,-0.554 -0.446,-1 -1,-1 H 2 c -0.554,0 -1,0.446 -1,1 z"/>
 <path style="opacity:0.2" d="m 1,20 v 0.5 c 0,0.554 0.446,1 1,1 h 18 c 0.554,0 1,-0.446 1,-1 V 20 c 0,0.554 -0.446,1 -1,1 H 2 C 1.446,21 1,20.554 1,20 Z"/>
</svg>
